X:1
T:Effingham, LM
T:Effingham, LM
T:The Sacred Harp or Eclectic Harmony, 1835
T:Public Domain Courtesy of the Cyber Hymnal™
C:The Sacred Harp or Eclectic Harmony, 1835
Z:Public Domain
Z:Courtesy of the Cyber Hymnal™
%%score ( 1 2 ) ( 3 4 )
L:1/8
Q:1/4=110
M:3/4
K:F
V:1 treble 
V:2 treble 
V:3 bass 
V:4 bass 
V:1
 F2 | [Fc]2 [EB]2 [FA]2 | ([FA]2 [EG]2) F2 | (C2 [GB]2) [FA]2 | ([FA]2 [EG]2) [CE]2 | [CF]4 [CE]2 | %6
 (F2 [CG]2) [FA]2 | (B2 A2) [EG]2 | F4 [Ac]2 | [Ac]4 ([FA]>[GB]) | [Ac]4 ([Bd]>[Ac]) | %11
 ([Ac]2 [GB]2) [FA]2 | ([FA]2 [EG]2) [Fc]2 | ([FA]>[GB]) [Ac]2 [Bc]2 | (c2 f2) [Fc]2 | %15
 (dc/B/) A2 [EG]2 | F4 |] %17
V:2
 F2 | x6 | x4 F2 | C2 x4 | x6 | x6 | F2 x4 | F4 x2 | F4 x2 | x6 | x6 | x6 | x6 | x6 | A4 x2 | %15
 F4 x2 | F4 |] %17
V:3
 [F,A,]2 | C4 [F,C]2 | (C3 B,) [D,A,]2 | (G,2 C2) [F,C]2 | [C,C]4 G,2 | [A,,F,]4 [C,G,]2 | %6
 ([F,A,]2 [E,C]2) [F,C]2 | ([B,,D]2 [C,C]2) [C,B,]2 | [F,A,]4 F,2 | F,4 F,2 | F,4 F,2 | E,4 F,2 | %12
 C,4 [E,C]2 | (C2 F2) [G,E]2 | ([A,F]2 [F,C]2) [A,,C]2 | (B,C/D/) [C,C]2 (CB,) | [F,A,]4 |] %17
V:4
 x2 | (A,2 G,2) x2 | C,4 x2 | E,4 x2 | x4 (C,B,,) | x6 | x6 | x6 | x4 F,2 | F,4 F,2 | F,4 F,2 | %11
 E,4 F,2 | C,4 x2 | F,4 x2 | x6 | B,,2 x C,2 x | x4 |] %17

